X: 32222
T: Phoenix, The
R: reel
M: 4/4
K: Dmajor
fAdf edce|BAGB AGFA|fAdf edce|BAGB A3f|
faaf edce|BAGB AGFE|D3d dAdf|1 edce d2ag:|2 edce d2z2||
|:FBBA B3f|fedf edce|FBBA Bcde|fdef decd|
B2FB B2FB|B2dB cBAB|FBBA Bcde|1 fedc d2z2:|2 fedc d2ag||

